X: 1
T:Dinky's
T:Dinky Dorian's
C:Francie Dearg Byrne
R:reel
H:Also played in Amix, see #97
D:Altan: Horse with a Heart.
D:De Dannan: .
Z:id:hn-reel-777
M:C|
K:Dmix
AG|:FGEF DEFG|AcBG AGEG|cE~E2 cEdE|cE~E2 cBAG|
FGEF DEFG|AcBG AGEG|c2cA B2AG|1 FGEF D2AG:|2 FGEF D2Ac||
|:dD~D2 dDeD|dD~D2 dcAB|cE~E2 cEdE|cE~E2 cABc|
[1 dD~D2 dDeD|dD~D2 dcAB|c2cA B2AG|FGEF D2Ac:|
[2 d2dB c2cA|B2BG AGAB|c2cA B2AG|FGEF D2||
